24x24/apps/anbox.svg

<svg xmlns="http://www.w3.org/2000/svg" width="24" height="24" version="1">
 <rect style="opacity:0.2" width="19" height="19" x="-21.5" y="-21" rx=".95" ry=".95" transform="matrix(0,-1,-1,0,0,0)"/>
 <rect style="fill:#109d8f" width="19" height="19" x="-21" y="-21" rx=".95" ry=".95" transform="matrix(0,-1,-1,0,0,0)"/>
 <path style="opacity:0.2" d="m 9.3007812,4.8007812 c -0.028812,-0.00687 -0.058734,-0.00212 -0.083984,0.015625 -0.051,0.033 -0.060484,0.1056563 -0.021484,0.1601563 l 0.6464844,0.921875 C 8.8142969,6.3674375 8.092,7.461 8,8.5 h 7 C 14.908047,7.461526 14.188778,6.3658364 13.162109,5.8984375 l 0.646485,-0.921875 c 0.039,-0.0545 0.02752,-0.1251562 -0.02149,-0.1601563 -0.051,-0.035 -0.123109,-0.017391 -0.162109,0.037109 l -0.669922,0.9570313 c -0.4435,-0.172 -0.935625,-0.2675781 -1.453125,-0.2675781 -0.5175,0 -1.010125,0.095578 -1.453125,0.2675781 L 9.3769531,4.8535156 c -0.0195,-0.02725 -0.047359,-0.045859 -0.076172,-0.052734 z m 0.7246098,1.9902344 c 0.215,0 0.386718,0.1699063 0.386718,0.3789063 0,0.209 -0.174218,0.3808593 -0.386718,0.3808593 -0.2150004,0 -0.3886722,-0.1698593 -0.3886722,-0.3808593 0,-0.209 0.1741718,-0.3789063 0.3886722,-0.3789063 z m 3,0 c 0.213,0 0.386718,0.1699063 0.386718,0.3789063 0,0.209 -0.174218,0.3808593 -0.386718,0.3808593 -0.215,0 -0.388672,-0.1698593 -0.388672,-0.3808593 0,-0.209 0.174172,-0.3789063 0.388672,-0.3789063 z M 8.0019531,9.5 v 5.796875 c 0,0.344 0.16,0.703125 0.5,0.703125 H 10 v 1.6875 c 0,0.449 0,0.8125 0.5,0.8125 0.5,0 0.501953,-0.3635 0.501953,-0.8125 V 16 h 1 v 1.6875 c 0,0.449 -0.03902,0.8125 0.498047,0.8125 0.5,0 0.5,-0.249564 0.5,-0.8125 V 16 h 1.503906 c 0.338,0 0.5,-0.35965 0.5,-0.703125 V 9.5 Z M 6.5234375,9.50195 C 6.0005475,9.5005531 6,9.879343 6,10.345703 v 3.308594 c 0,0.46686 5.479e-4,0.84919 0.5234375,0.847656 C 7.0005475,14.500553 7,14.120657 7,13.654297 V 10.345703 C 7,9.8788432 7.0005475,9.5005531 6.5234375,9.5019531 Z m 9.9550785,0 C 16.000038,9.5005531 16,9.879343 16,10.345703 v 3.308594 c 0,0.46686 3.8e-5,0.84894 0.478516,0.847656 C 17.000038,14.500553 17,14.120657 17,13.654297 v -3.308594 c 0,-0.4668598 3.8e-5,-0.8451499 -0.521484,-0.8437499 z"/>
 <path style="fill:#f4f4f7" d="M 9.3007812 4.3007812 C 9.2719687 4.2939063 9.2420469 4.2986563 9.2167969 4.3164062 C 9.1657969 4.3494063 9.1563125 4.4220625 9.1953125 4.4765625 L 9.8417969 5.3984375 C 8.8142969 5.8674375 8.092 6.961 8 8 L 15 8 C 14.908047 6.961526 14.188778 5.8658364 13.162109 5.3984375 L 13.808594 4.4765625 C 13.847594 4.4220625 13.836109 4.3514063 13.787109 4.3164062 C 13.736109 4.2814062 13.664 4.2990156 13.625 4.3535156 L 12.955078 5.3105469 C 12.511578 5.1385469 12.019453 5.0429688 11.501953 5.0429688 C 10.984453 5.0429688 10.491828 5.1385469 10.048828 5.3105469 L 9.3769531 4.3535156 C 9.3574531 4.3262656 9.3295938 4.3076562 9.3007812 4.3007812 z M 10.025391 6.2910156 C 10.240391 6.2910156 10.412109 6.4609219 10.412109 6.6699219 C 10.412109 6.8789219 10.237891 7.0507812 10.025391 7.0507812 C 9.8103906 7.0507812 9.6367188 6.8809219 9.6367188 6.6699219 C 9.6367188 6.4609219 9.8108906 6.2910156 10.025391 6.2910156 z M 13.025391 6.2910156 C 13.238391 6.2910156 13.412109 6.4609219 13.412109 6.6699219 C 13.412109 6.8789219 13.237891 7.0507812 13.025391 7.0507812 C 12.810391 7.0507812 12.636719 6.8809219 12.636719 6.6699219 C 12.636719 6.4609219 12.810891 6.2910156 13.025391 6.2910156 z M 8.0019531 9 L 8.0019531 14.796875 C 8.0019531 15.140875 8.1619531 15.5 8.5019531 15.5 L 10 15.5 L 10 17.1875 C 10 17.6365 10 18 10.5 18 C 11 18 11.001953 17.6365 11.001953 17.1875 L 11.001953 15.5 L 12.001953 15.5 L 12.001953 17.1875 C 12.001953 17.6365 11.962931 18 12.5 18 C 13 18 13 17.750436 13 17.1875 L 13 15.5 L 14.503906 15.5 C 14.841906 15.5 15.003906 15.14035 15.003906 14.796875 L 15.003906 9 L 8.0019531 9 z M 6.5234375 9.0019531 C 6.0005475 9.0005531 6 9.379343 6 9.8457031 L 6 13.154297 C 6 13.621157 6.0005479 14.003487 6.5234375 14.001953 C 7.0005475 14.000553 7 13.620657 7 13.154297 L 7 9.8457031 C 7 9.3788432 7.0005475 9.0005531 6.5234375 9.0019531 z M 16.478516 9.0019531 C 16.000038 9.0005531 16 9.379343 16 9.8457031 L 16 13.154297 C 16 13.621157 16.000038 14.003237 16.478516 14.001953 C 17.000038 14.000553 17 13.620657 17 13.154297 L 17 9.8457031 C 17 9.3788432 17.000038 9.0005531 16.478516 9.0019531 z"/>
 <path style="fill:#f4f4f7;opacity:0.2" d="M 2.9492188 2 C 2.4229188 2 2 2.4229188 2 2.9492188 L 2 3.4492188 C 2 2.9229188 2.4229188 2.5 2.9492188 2.5 L 20.050781 2.5 C 20.577081 2.5 21 2.9229188 21 3.4492188 L 21 2.9492188 C 21 2.4229188 20.577081 2 20.050781 2 L 2.9492188 2 z"/>
</svg>

<svg xmlns="http://www.w3.org/2000/svg" width="24" height="24" version="1"><rect style="opacity:.2" width="19" height="19" x="-21.5" y="-21" rx=".95" ry=".95" transform="matrix(0 -1 -1 0 0 0)"/><rect style="fill:#109d8f" width="19" height="19" x="-21" y="-21" rx=".95" ry=".95" transform="matrix(0 -1 -1 0 0 0)"/><path style="opacity:.2" d="M9.3 4.8a.103.103 0 0 0-.083.016c-.051.033-.06.106-.022.16l.647.922C8.814 6.368 8.092 7.461 8 8.5h7c-.092-1.038-.811-2.134-1.838-2.602l.647-.921c.039-.055.027-.126-.022-.16-.05-.036-.123-.018-.162.037l-.67.957a4.019 4.019 0 0 0-1.453-.268c-.518 0-1.01.096-1.453.268l-.672-.957a.134.134 0 0 0-.076-.053zm.725 1.991c.215 0 .387.17.387.379s-.174.38-.387.38a.384.384 0 0 1-.388-.38c0-.21.174-.379.388-.379zm3 0c.213 0 .387.17.387.379s-.174.38-.387.38a.384.384 0 0 1-.388-.38c0-.21.174-.379.388-.379zM8.002 9.5v5.797c0 .344.16.703.5.703H10v1.688c0 .449 0 .812.5.812s.502-.363.502-.813V16h1v1.688c0 .449-.04.812.498.812.5 0 .5-.25.5-.813V16h1.504c.338 0 .5-.36.5-.703V9.5zm-1.479.002c-.522-.001-.523.377-.523.844v3.308c0 .467 0 .85.523.848.478-.001.477-.381.477-.848v-3.308c0-.467 0-.845-.477-.844zm9.956 0C16 9.501 16 9.879 16 10.346v3.308c0 .467 0 .85.479.848.521-.001.521-.381.521-.848v-3.308c0-.467 0-.845-.521-.844z"/><path style="fill:#f4f4f7" d="M9.3 4.3a.102.102 0 0 0-.083.016c-.051.033-.06.106-.022.16l.647.922C8.814 5.868 8.092 6.961 8 8h7c-.092-1.038-.811-2.134-1.838-2.602l.647-.921c.039-.055.027-.126-.022-.16-.05-.036-.123-.018-.162.037l-.67.957a4.019 4.019 0 0 0-1.453-.268c-.518 0-1.01.096-1.453.268l-.672-.957a.134.134 0 0 0-.076-.053zm.725 1.991c.215 0 .387.17.387.379s-.174.38-.387.38a.384.384 0 0 1-.388-.38c0-.21.174-.379.388-.379zm3 0c.213 0 .387.17.387.379s-.174.38-.387.38a.384.384 0 0 1-.388-.38c0-.21.174-.379.388-.379zM8.002 9v5.797c0 .344.16.703.5.703H10v1.688c0 .449 0 .812.5.812s.502-.363.502-.813V15.5h1v1.688c0 .449-.04.812.498.812.5 0 .5-.25.5-.813V15.5h1.504c.338 0 .5-.36.5-.703V9H8.002zm-1.479.002C6.001 9.001 6 9.379 6 9.846v3.308c0 .467 0 .85.523.848.478-.001.477-.381.477-.848V9.846c0-.467 0-.845-.477-.844zm9.956 0C16 9.001 16 9.379 16 9.846v3.308c0 .467 0 .85.479.848.521-.001.521-.381.521-.848V9.846c0-.467 0-.845-.521-.844z"/><path style="fill:#f4f4f7;opacity:.2" d="M2.95 2a.947.947 0 0 0-.95.95v.5c0-.527.423-.95.95-.95h17.1c.527 0 .95.423.95.95v-.5a.947.947 0 0 0-.95-.95H2.95z"/></svg>
